X: 6125
T: Captain Kelly
R: reel
M: 4/4
K: Gmajor
GBAF G2 ge|dBAc BGEF|GBAF G2 ge|dBAc BGGF|
G2 Bd g2 ge|dBAc BGEF|GBAF G2 ge|dBAc BG G2|
dgbg agbg|egdg egde|g2 bg agbg|egfa g3 e|
dgbg agbg|egdg eg de|g2 gd edBd|egfa gedB|

